X: 3437
T: OPERA POLKA
%R: polka
B: James Kerr "Merry Melodies" v.3 p.50 #437
Z: 2016 John Chambers <jc:trillian.mit.edu>
M: 2/4
L: 1/16
K: C
|:\
G2c2 cBc2 | d2G2 G^FG2 | d2G2f2G2 | a2g2 gfe2 |\
G2c2 cBc2 | d2G2 G^FG2 | d2G2f2B2 | d2c2c2z2 H::\
B2d2g2b2 | b2a^g a2=g2 | g2^fc f2e2 | e2d2d2G2 |
B2d2g2b2 | b2ae (a2g2) | (g^f) (^cd) (ed) (fd) | (^fg) (ba) "_D.C."g4 ::\
"^TRIO."\
b2G2b2a2 | a2g2g2e2 | g2G2f2B2 | d2c2c2g2 |\
b2G2b2a2 | a2g2g2e2 | g2f2B2g2 | c2ed "_D.C."c4 :|

%%sep 1 1 500
%%sep 1 1 500

